X: 2670
T: Bank Of Turf, The
R: hornpipe
M: 4/4
K: Gmajor
|:BA|G3A B3c|dBcA GBAG|FEFG ABce|dBcA BGFA|
G3A B3c|dBcA GBAG|ef (3gfe dcAF|AGGF G2:|
|:Bc|dggf g3a|bggf g2 ag|f2 d2 dedc|(3BcB BG (3AcA AF|
Gggf g3a|bggf gbag|f2 d2 dcAF|A2 G2 G2:|
|:BA|G3A B3c|d2 G2 G2 (3ABc|d2 G2 cABG|AGFA dcAF|
G3F GABc|dGGF GBAG|F2 fd cAAF|AGGF G2:|

